src/public/bandaid-logo.svg

<svg viewBox="0 0 236 92" xmlns="http://www.w3.org/2000/svg" xml:space="preserve" style="fill-rule:evenodd;clip-rule:evenodd;stroke-linejoin:round;stroke-miterlimit:2">
  <path style="fill:none" d="M0 0h200v92H0z" transform="scale(1.18 1)"/>
  <path d="M188.978 28.872c0-6.343-2.336-12.426-6.495-16.912-4.158-4.485-9.798-7.005-15.678-7.005H33.192c-5.881 0-11.521 2.52-15.679 7.005-4.158 4.486-6.494 10.569-6.494 16.912V61.12c0 6.343 2.336 12.427 6.494 16.912 4.158 4.486 9.798 7.006 15.679 7.006h133.613c5.88 0 11.52-2.52 15.678-7.006 4.159-4.485 6.495-10.569 6.495-16.912V28.872Z" style="fill:#463b5b" transform="matrix(1.07867 0 0 1 -11.885 1.004)"/>
  <path d="M143.435 17.625a6.906 6.906 0 0 0-6.906-6.906H63.468a6.906 6.906 0 0 0-6.907 6.906v54.742a6.907 6.907 0 0 0 6.907 6.907h73.061a6.906 6.906 0 0 0 6.906-6.907V17.625Z" style="fill:#e5b75b" transform="translate(-4.019 1.004)"/>
  <path d="m100.002 12.147-.015.004h-.03a24.073 24.073 0 0 0-16.592 6.716 24.313 24.313 0 0 0-5.314 7.718c-.382-.291-.775-.579-1.157-.873-.109-2.536-1.466-5.046-3.658-6.312-3.322-1.92-8.168-.767-10.122 2.619a7.162 7.162 0 0 0-.888 2.797 7.127 7.127 0 0 0-1.976 2.162v.003c-1.958 3.387-.529 8.153 2.789 10.069l.007.004c2.193 1.266 5.042 1.183 7.291.011 1.96.802 3.901 1.651 5.82 2.547v.004c-.585.646-.756 1.64.567 2.971.087.361.181.72.284 1.077-.873 3.228-.518 6.508.389 9.373a136.475 136.475 0 0 1-7.056 3.126c-2.253-1.176-5.102-1.255-7.295.015-3.322 1.912-4.75 6.686-2.796 10.068a7.15 7.15 0 0 0 1.984 2.17c.101.98.403 1.93.888 2.789v.007c1.958 3.383 6.799 4.536 10.121 2.616 2.192-1.27 3.549-3.776 3.659-6.312a135.842 135.842 0 0 1 7.136-5.14c.372.16.753.298 1.141.416l.714 1.557c.873 1.901 1.871 2.464 2.801 3.016.933.555 1.927.945 3.046 1.266 1.124.318 2.27.554 3.428.707l2.188 3.779 2.721 4.725 2.733-4.725 2.185-3.791a24.128 24.128 0 0 0 3.352-.699c1.126-.321 2.116-.71 3.05-1.266.933-.552 1.927-1.111 2.797-3.016l.703-1.531c.385-.109.764-.242 1.134-.396a135.457 135.457 0 0 1 7.071 5.098c.109 2.532 1.463 5.042 3.651 6.308h.007c3.323 1.916 8.164.771 10.118-2.615l.008-.004a7.105 7.105 0 0 0 .884-2.793 7.157 7.157 0 0 0 1.984-2.17c1.954-3.39.525-8.163-2.797-10.076-2.192-1.266-5.041-1.19-7.294-.015a134.483 134.483 0 0 1-7.06-3.122c.907-2.872 1.262-6.153.389-9.384.231-.784.424-1.578.579-2.381.279-.34.287-.556.124-.756.054-.299.101-.599.144-.899a135.6 135.6 0 0 1 5.824-2.552c2.253 1.172 5.102 1.255 7.287-.011h.007c3.319-1.916 4.751-6.682 2.797-10.068v-.004a7.155 7.155 0 0 0-1.973-2.166 7.201 7.201 0 0 0-.892-2.796 7.456 7.456 0 0 0-6.115-3.629 7.596 7.596 0 0 0-4.006 1.009c-2.196 1.27-3.553 3.772-3.666 6.312-.378.295-.767.582-1.153.873a24.281 24.281 0 0 0-5.314-7.718 24.08 24.08 0 0 0-16.629-6.712h-.004Zm.899 10.862c1.535.022 3.065.174 4.574.454a27.546 27.546 0 0 1 10.049 4.078c2.268 1.504 3.352 2.71 3.235 2.857-.151.204-1.485-.673-3.825-1.852-2.32-1.16-5.706-2.642-9.769-3.292a29.23 29.23 0 0 0-4.29-.374 32.097 32.097 0 0 0-6.898.665 39.954 39.954 0 0 0-8.001 2.597c-1.98 1.016-3.201 1.534-3.303 1.36-.106-.17.926-1.009 2.774-2.301a29.439 29.439 0 0 1 8.141-3.345 28.864 28.864 0 0 1 7.317-.847h-.004Zm-31.467 1.096c.084-.003.168-.003.253 0 .605.026 1.199.2 1.727.507 1.661.956 2.328 3.019 1.512 4.679a137.526 137.526 0 0 0 7.37 5.446 15.688 15.688 0 0 0-2.049 3.587 138.068 138.068 0 0 0-8.416-3.682c-1.028 1.534-3.142 1.991-4.8 1.036l-.004-.002c-1.734-1.001-2.366-3.2-1.402-4.873a3.49 3.49 0 0 1 2.77-1.713 3.49 3.49 0 0 1 .098-3.257c.6-1.038 1.708-1.69 2.937-1.728h.004Zm61.291 0 .008.008c1.227.039 2.334.691 2.932 1.727.57.988.608 2.204.102 3.258a3.49 3.49 0 0 1 2.771 1.716c.961 1.675.325 3.873-1.41 4.872-1.659.956-3.776.5-4.804-1.036a137.643 137.643 0 0 0-8.908 3.889 107.777 107.777 0 0 0-2.468-3.133 137.618 137.618 0 0 0 8.277-6.115c-.816-1.659-.151-3.722 1.508-4.679a3.752 3.752 0 0 1 1.984-.507h.008Zm-29.971 8.871c5.979.068 12.722 1.61 19.608 6.02V39l-3.693 3.073c-.589-1.206-1.685-1.663-3.114-1.674-1.497-.016-3.356.445-5.359 1.001-2.858.79-5.284 1.576-6.312 3.02h-4.875c-1.036-1.448-3.459-2.23-6.32-3.024-2.003-.548-3.858-1.005-5.359-.994-1.455.012-2.57.484-3.152 1.739l-2.619-2.181c.024-.131.051-.262.079-.393.019-.076.034-.151.057-.219l.068-.231a7.67 7.67 0 0 1 .151-.491c2.521-1.512 10.001-5.442 19.657-5.647a31.27 31.27 0 0 1 1.187-.003h-.004Zm20.107 10.643c-.035.402-.088.804-.159 1.201l-.034.159c-.071.374-.16.745-.265 1.111-.03.095-.062.19-.094.284a13.415 13.415 0 0 1-.885 2.154c.129.166.235.34.337.514l.034.068c.094.182.174.359.238.544.51 1.459.404 3.013-.151 4.562a11.174 11.174 0 0 1-1.1 2.241c-.102.152-.208.299-.318.446a9.085 9.085 0 0 1-2.8 2.555l-.011.008a9.152 9.152 0 0 1-.775.4l-.242.103a9.337 9.337 0 0 1-1.436.487l-.227.053-.03.008-1.625 2.804c-.269.453-1.028.907-2.211 1.285-.942.292-1.905.512-2.88.658-.601.093-1.205.169-1.811.226-1.413.14-2.832.208-4.252.204h-.094c-1.429 0-2.744-.068-3.946-.177l-.298-.027a32.181 32.181 0 0 1-1.807-.226c-.219-.038-.397-.08-.605-.118-.329-.06-.672-.121-.967-.189a15.68 15.68 0 0 1-1.312-.355c-1.179-.378-1.942-.831-2.211-1.285l-1.61-2.778a9.316 9.316 0 0 1-.771-.189l-.03-.011a9.18 9.18 0 0 1-.605-.208l-.31-.125a9.076 9.076 0 0 1-3.783-2.921h.004a10.26 10.26 0 0 1-.85-1.323c-1.096-2.048-1.512-4.157-.839-6.1a4.29 4.29 0 0 1 .604-1.123c-.22-.428-.415-.863-.586-1.303a13.253 13.253 0 0 1-.283-.821 13.6 13.6 0 0 1-.136-.434c-.096-.343-.178-.69-.246-1.04v-.022l2.502 2.082c.631 3.114 2.43 6.425 5.28 7.211 3.798 1.051 8.152-2.713 9.698-5.93h4.989c1.542 3.213 5.896 6.977 9.687 5.934 2.891-.793 4.709-4.184 5.31-7.332l3.912-3.265Zm-5.163.793c.48 0 .869.454.869 1.009v1.788c0 .559-.389 1.009-.869 1.009s-.862-.45-.862-1.009v-1.788c0-.555.382-1.005.862-1.005v-.004Zm-16.259 5.477-.023.011c-2.343 1.153-4.237 3.715-4.233 5.715 0 2.003 1.89 2.687 4.233 1.53l.027-.011.026.011c2.339 1.153 4.233.473 4.233-1.53 0-2.004-1.894-4.558-4.233-5.707l-.023-.016-.007-.003Zm-20.02 8.364a10.422 10.422 0 0 0 2.547 2.891 136.745 136.745 0 0 0-9.04 6.64c.817 1.658.154 3.721-1.504 4.679l-.002.001c-1.734 1.002-3.957.449-4.923-1.225a3.49 3.49 0 0 1-.102-3.254 3.491 3.491 0 0 1-2.767-1.716c-.966-1.673-.335-3.874 1.399-4.876 1.661-.961 3.785-.502 4.811 1.04a135.791 135.791 0 0 0 9.581-4.177v-.003Zm41.317 0a136.116 136.116 0 0 0 9.592 4.183c1.027-1.541 3.15-2 4.811-1.039 1.734 1.002 2.365 3.203 1.399 4.876a3.488 3.488 0 0 1-2.771 1.715 3.488 3.488 0 0 1-.102 3.255c-.967 1.671-3.188 2.223-4.921 1.222l-.003-.002c-1.659-.958-2.322-3.021-1.504-4.679a137.028 137.028 0 0 0-9.041-6.64 10.4 10.4 0 0 0 2.544-2.888l-.004-.003Z" style="fill:#0f2834;fill-rule:nonzero" transform="translate(-4.019 1.004)"/>
  <path d="M33.657 20.526c-2.266 0-4.13 1.65-4.13 3.655s1.864 3.655 4.13 3.655c2.267 0 4.131-1.65 4.131-3.655s-1.864-3.655-4.131-3.655Zm133.457 0c-2.267 0-4.131 1.65-4.131 3.655s1.864 3.655 4.131 3.655c2.266 0 4.13-1.65 4.13-3.655s-1.864-3.655-4.13-3.655ZM22.489 40.905c-2.266-.002-4.132 1.646-4.135 3.651v.004c0 2.005 1.865 3.654 4.131 3.654h.004c2.266 0 4.131-1.649 4.131-3.654v-.004c-.002-2.004-1.866-3.651-4.131-3.651Zm21.573 0c-2.266-.002-4.132 1.646-4.134 3.651v.004c0 2.005 1.864 3.654 4.13 3.654h.004c2.266 0 4.131-1.649 4.131-3.654v-.004c-.002-2.005-1.869-3.653-4.135-3.651h.004Zm111.883 0h-.007c-2.266 0-4.131 1.65-4.131 3.655s1.865 3.654 4.131 3.654h.007c2.265-.001 4.127-1.651 4.127-3.654 0-2.004-1.862-3.653-4.127-3.655Zm21.57 0h-.004c-2.266 0-4.131 1.65-4.131 3.655s1.865 3.654 4.131 3.654h.004c2.266 0 4.131-1.649 4.131-3.654s-1.865-3.655-4.131-3.655ZM33.65 62.157h-.008c-2.264 0-4.128 1.647-4.131 3.651v.004c0 2.004 1.865 3.654 4.131 3.654h.004c2.266 0 4.131-1.65 4.131-3.654 0-2.005-1.865-3.655-4.131-3.655h.004Zm133.452 0c-2.266 0-4.131 1.65-4.131 3.655 0 2.004 1.865 3.654 4.131 3.654h.004c2.266 0 4.131-1.65 4.131-3.654 0-2.005-1.865-3.655-4.131-3.655h-.004Z" style="fill:#ff9000;fill-rule:nonzero" transform="translate(-4.019 1.004)"/>
</svg>

<?xml version="1.0" encoding="UTF-8" standalone="no"?>
<!DOCTYPE svg PUBLIC "-//W3C//DTD SVG 1.1//EN" "http://www.w3.org/Graphics/SVG/1.1/DTD/svg11.dtd">
<svg width="100%" height="100%" viewBox="0 0 236 92" version="1.1" xmlns="http://www.w3.org/2000/svg" xmlns:xlink="http://www.w3.org/1999/xlink" xml:space="preserve" xmlns:serif="http://www.serif.com/" style="fill-rule:evenodd;clip-rule:evenodd;stroke-linejoin:round;stroke-miterlimit:2;">
    <g id="Artboard1" transform="matrix(1.18,0,0,1,0,0)">
        <rect x="0" y="0" width="200" height="92" style="fill:none;"/>
        <g id="Bad-Bandaid-Layered" transform="matrix(1,0,0,1,-14.4225,1.00378)">
            <g id="BGN" transform="matrix(0.914127,0,0,1,4.35015,0)">
                <path d="M188.978,28.872C188.978,22.529 186.642,16.446 182.483,11.96C178.325,7.475 172.685,4.955 166.805,4.955L33.192,4.955C27.311,4.955 21.671,7.475 17.513,11.96C13.355,16.446 11.019,22.529 11.019,28.872L11.019,61.12C11.019,67.463 13.355,73.547 17.513,78.032C21.671,82.518 27.311,85.038 33.192,85.038L166.805,85.038C172.685,85.038 178.325,82.518 182.483,78.032C186.642,73.547 188.978,67.463 188.978,61.12L188.978,28.872Z" style="fill:#463b5b;"/>
            </g>
            <g id="Mid-Sponge" transform="matrix(0.847458,0,0,1,11.0169,0)">
                <path d="M143.435,17.625C143.435,13.811 140.343,10.719 136.529,10.719C120.269,10.719 79.727,10.719 63.468,10.719C59.653,10.719 56.561,13.811 56.561,17.625C56.561,30.766 56.561,59.226 56.561,72.367C56.561,76.182 59.653,79.274 63.468,79.274C79.727,79.274 120.269,79.274 136.529,79.274C140.343,79.274 143.435,76.182 143.435,72.367C143.435,59.226 143.435,30.766 143.435,17.625Z" style="fill:#e5b75b;"/>
            </g>
            <g id="Skully-Cool" transform="matrix(0.847458,0,0,1,11.0169,0)">
                <path d="M100.002,12.147L99.987,12.151C99.977,12.151 99.967,12.151 99.957,12.151C93.77,12.173 87.825,14.58 83.365,18.867C81.11,21.071 79.305,23.692 78.051,26.585C77.669,26.294 77.276,26.006 76.894,25.712C76.785,23.176 75.428,20.666 73.236,19.4C69.914,17.48 65.068,18.633 63.114,22.019C62.628,22.88 62.326,23.832 62.226,24.816C61.425,25.392 60.752,26.128 60.25,26.978C60.25,26.979 60.25,26.98 60.25,26.981C58.292,30.368 59.721,35.134 63.039,37.05C63.041,37.051 63.044,37.052 63.046,37.054C65.239,38.32 68.088,38.237 70.337,37.065C72.297,37.867 74.238,38.716 76.157,39.612C76.157,39.614 76.157,39.615 76.157,39.616C75.572,40.262 75.401,41.256 76.724,42.587C76.811,42.948 76.905,43.307 77.008,43.664C76.135,46.892 76.49,50.172 77.397,53.037C75.075,54.145 72.722,55.188 70.341,56.163C68.088,54.987 65.239,54.908 63.046,56.178C59.724,58.09 58.296,62.864 60.25,66.246C60.752,67.108 61.436,67.834 62.234,68.416C62.335,69.396 62.637,70.346 63.122,71.205C63.122,71.207 63.122,71.21 63.122,71.212C65.08,74.595 69.921,75.748 73.243,73.828C75.435,72.558 76.792,70.052 76.902,67.516C79.225,65.726 81.604,64.012 84.038,62.376C84.41,62.536 84.791,62.674 85.179,62.792L85.893,64.349C86.766,66.25 87.764,66.813 88.694,67.365C89.627,67.92 90.621,68.31 91.74,68.631C92.864,68.949 94.01,69.185 95.168,69.338L97.356,73.117L100.077,77.842L102.81,73.117L104.995,69.326C106.127,69.173 107.247,68.939 108.347,68.627C109.473,68.306 110.463,67.917 111.397,67.361C112.33,66.809 113.324,66.25 114.194,64.345L114.897,62.814C115.282,62.705 115.661,62.572 116.031,62.418C118.442,64.041 120.8,65.741 123.102,67.516C123.211,70.048 124.565,72.558 126.753,73.824C126.755,73.824 126.758,73.824 126.76,73.824C130.083,75.74 134.924,74.595 136.878,71.209C136.88,71.207 136.883,71.206 136.886,71.205C137.371,70.346 137.673,69.394 137.77,68.412C138.574,67.834 139.25,67.095 139.754,66.242C141.708,62.852 140.279,58.079 136.957,56.166C134.765,54.9 131.916,54.976 129.663,56.151C127.28,55.178 124.926,54.137 122.603,53.029C123.51,50.157 123.865,46.876 122.992,43.645C123.223,42.861 123.416,42.067 123.571,41.264C123.85,40.924 123.858,40.708 123.695,40.508C123.749,40.209 123.796,39.909 123.839,39.609C125.76,38.713 127.702,37.862 129.663,37.057C131.916,38.229 134.765,38.312 136.95,37.046C136.952,37.046 136.955,37.046 136.957,37.046C140.276,35.13 141.708,30.364 139.754,26.978C139.754,26.976 139.754,26.975 139.754,26.974C139.253,26.124 138.581,25.386 137.781,24.808C137.679,23.825 137.375,22.873 136.889,22.012C135.598,19.847 133.293,18.479 130.774,18.383C129.371,18.343 127.984,18.692 126.768,19.392C124.572,20.662 123.215,23.164 123.102,25.704C122.724,25.999 122.335,26.286 121.949,26.577C120.696,23.684 118.891,21.063 116.635,18.859C112.165,14.565 106.204,12.159 100.006,12.147L100.002,12.147ZM100.901,23.009C102.436,23.031 103.966,23.183 105.475,23.463C109.061,24.143 112.478,25.529 115.524,27.541C117.792,29.045 118.876,30.251 118.759,30.398C118.608,30.602 117.274,29.725 114.934,28.546C112.614,27.386 109.228,25.904 105.165,25.254C103.746,25.024 102.312,24.899 100.875,24.88C98.559,24.852 96.246,25.075 93.977,25.545C91.226,26.127 88.544,26.997 85.976,28.142C83.996,29.158 82.775,29.676 82.673,29.502C82.567,29.332 83.599,28.493 85.447,27.201C87.978,25.684 90.722,24.557 93.588,23.856C95.981,23.262 98.44,22.978 100.905,23.009L100.901,23.009ZM69.434,24.105C69.518,24.102 69.602,24.102 69.687,24.105C70.292,24.131 70.886,24.305 71.414,24.612C73.075,25.568 73.742,27.631 72.926,29.291C75.321,31.187 77.779,33.004 80.296,34.737C79.458,35.837 78.769,37.043 78.247,38.324C75.483,37.003 72.676,35.776 69.831,34.642C68.803,36.176 66.689,36.633 65.031,35.678C65.029,35.677 65.028,35.677 65.027,35.676C63.293,34.675 62.661,32.476 63.625,30.803C64.197,29.817 65.231,29.178 66.395,29.09C65.888,28.037 65.925,26.821 66.493,25.833C67.093,24.795 68.201,24.143 69.43,24.105L69.434,24.105ZM130.725,24.105L130.733,24.113C131.96,24.152 133.067,24.804 133.665,25.84C134.235,26.828 134.273,28.044 133.767,29.098C134.932,29.186 135.967,29.827 136.538,30.814C137.499,32.489 136.863,34.687 135.128,35.686C133.469,36.642 131.352,36.186 130.324,34.65C127.31,35.841 124.339,37.138 121.416,38.539C120.613,37.48 119.79,36.435 118.948,35.406C121.783,33.471 124.543,31.432 127.225,29.291C126.409,27.632 127.074,25.569 128.733,24.612C129.338,24.261 130.026,24.086 130.717,24.105L130.725,24.105ZM100.754,32.976C106.733,33.044 113.476,34.586 120.362,38.996L120.362,39L116.669,42.073C116.08,40.867 114.984,40.41 113.555,40.399C112.058,40.383 110.199,40.844 108.196,41.4C105.338,42.19 102.912,42.976 101.884,44.42L97.009,44.42C95.973,42.972 93.55,42.19 90.689,41.396C88.686,40.848 86.831,40.391 85.33,40.402C83.875,40.414 82.76,40.886 82.178,42.141L79.559,39.96C79.583,39.829 79.61,39.698 79.638,39.567C79.657,39.491 79.672,39.416 79.695,39.348C79.717,39.271 79.74,39.194 79.763,39.117C79.808,38.955 79.857,38.788 79.914,38.626C82.435,37.114 89.915,33.184 99.571,32.979C99.964,32.972 100.357,32.968 100.758,32.976L100.754,32.976ZM120.861,43.619C120.826,44.021 120.773,44.423 120.702,44.82C120.691,44.873 120.68,44.926 120.668,44.979C120.597,45.353 120.508,45.724 120.403,46.09C120.373,46.185 120.341,46.28 120.309,46.374C120.077,47.116 119.781,47.837 119.424,48.528C119.553,48.694 119.659,48.868 119.761,49.042C119.772,49.065 119.784,49.087 119.795,49.11C119.889,49.292 119.969,49.469 120.033,49.654C120.543,51.113 120.437,52.667 119.882,54.216C119.6,55.002 119.231,55.754 118.782,56.457C118.68,56.609 118.574,56.756 118.464,56.903C117.721,57.942 116.766,58.813 115.664,59.458L115.653,59.466C115.401,59.612 115.142,59.745 114.878,59.866L114.636,59.969C114.171,60.17 113.691,60.333 113.2,60.456L112.973,60.509C112.963,60.512 112.953,60.514 112.943,60.517L111.318,63.321C111.049,63.774 110.29,64.228 109.107,64.606C108.165,64.898 107.202,65.118 106.227,65.264C105.626,65.357 105.022,65.433 104.416,65.49C103.003,65.63 101.584,65.698 100.164,65.694L100.07,65.694C98.641,65.694 97.326,65.626 96.124,65.517L95.826,65.49C95.221,65.432 94.619,65.356 94.019,65.264C93.8,65.226 93.622,65.184 93.414,65.146C93.085,65.086 92.742,65.025 92.447,64.957C92.005,64.858 91.567,64.739 91.135,64.602C89.956,64.224 89.193,63.771 88.924,63.317L87.314,60.539C87.055,60.487 86.797,60.424 86.543,60.35L86.513,60.339C86.309,60.277 86.107,60.207 85.908,60.131L85.598,60.006C85.221,59.848 84.853,59.667 84.499,59.462C83.455,58.856 82.543,58.048 81.815,57.085L81.819,57.085C81.502,56.666 81.218,56.224 80.969,55.762C79.873,53.714 79.457,51.605 80.13,49.662C80.274,49.26 80.478,48.881 80.734,48.539C80.514,48.111 80.319,47.676 80.148,47.236C80.045,46.965 79.95,46.692 79.865,46.415C79.817,46.271 79.772,46.126 79.729,45.981C79.633,45.638 79.551,45.291 79.483,44.941C79.483,44.934 79.483,44.926 79.483,44.919L81.985,47.001C82.616,50.115 84.415,53.426 87.265,54.212C91.063,55.263 95.417,51.499 96.963,48.282L101.952,48.282C103.494,51.495 107.848,55.259 111.639,54.216C114.53,53.423 116.348,50.032 116.949,46.884L120.861,43.619ZM115.698,44.412C116.178,44.412 116.567,44.866 116.567,45.421L116.567,47.209C116.567,47.768 116.178,48.218 115.698,48.218C115.218,48.218 114.836,47.768 114.836,47.209L114.836,45.421C114.836,44.866 115.218,44.416 115.698,44.416L115.698,44.412ZM99.439,49.889L99.416,49.9C97.073,51.053 95.179,53.615 95.183,55.615C95.183,57.618 97.073,58.302 99.416,57.145L99.443,57.134L99.469,57.145C101.808,58.298 103.702,57.618 103.702,55.615C103.702,53.611 101.808,51.057 99.469,49.908L99.446,49.892L99.439,49.889ZM79.419,58.253C80.081,59.367 80.945,60.347 81.966,61.144C78.863,63.233 75.847,65.448 72.926,67.784C73.743,69.442 73.08,71.505 71.422,72.463C71.421,72.464 71.421,72.464 71.42,72.464C69.686,73.466 67.463,72.913 66.497,71.239C66.497,71.239 66.497,71.239 66.497,71.239C65.929,70.251 65.89,69.037 66.395,67.985C65.231,67.895 64.199,67.255 63.628,66.269C62.662,64.596 63.293,62.395 65.027,61.393C66.688,60.432 68.812,60.891 69.838,62.433C73.084,61.164 76.28,59.771 79.419,58.256L79.419,58.253ZM120.736,58.253C123.879,59.77 127.078,61.165 130.328,62.436C131.355,60.895 133.478,60.436 135.139,61.397C136.873,62.399 137.504,64.6 136.538,66.273C135.967,67.26 134.932,67.9 133.767,67.988C134.272,69.041 134.234,70.255 133.665,71.243C132.698,72.914 130.477,73.466 128.744,72.465C128.743,72.465 128.742,72.464 128.741,72.463C127.082,71.505 126.419,69.442 127.237,67.784C124.315,65.448 121.299,63.233 118.196,61.144C119.216,60.348 120.079,59.369 120.74,58.256L120.736,58.253Z" style="fill:#0f2834;fill-rule:nonzero;"/>
            </g>
            <g id="Dots" transform="matrix(0.847458,0,0,1,11.0169,0)">
                <path d="M33.657,20.526C31.391,20.526 29.527,22.176 29.527,24.181C29.527,26.186 31.391,27.836 33.657,27.836C35.924,27.836 37.788,26.186 37.788,24.181C37.788,22.176 35.924,20.526 33.657,20.526ZM167.114,20.526C164.847,20.526 162.983,22.176 162.983,24.181C162.983,26.186 164.847,27.836 167.114,27.836C169.38,27.836 171.244,26.186 171.244,24.181C171.244,22.176 169.38,20.526 167.114,20.526ZM22.489,40.905C20.223,40.903 18.357,42.551 18.354,44.556C18.354,44.557 18.354,44.558 18.354,44.56C18.354,46.565 20.219,48.214 22.485,48.214C22.487,48.214 22.489,48.214 22.489,48.214C24.755,48.214 26.62,46.565 26.62,44.56C26.62,44.558 26.62,44.557 26.62,44.556C26.618,42.552 24.754,40.905 22.489,40.905ZM44.062,40.905C41.796,40.903 39.93,42.551 39.928,44.556C39.928,44.557 39.928,44.558 39.928,44.56C39.928,46.565 41.792,48.214 44.058,48.214C44.06,48.214 44.062,48.214 44.062,48.214C46.328,48.214 48.193,46.565 48.193,44.56C48.193,44.558 48.193,44.557 48.193,44.556C48.191,42.551 46.324,40.903 44.058,40.905L44.062,40.905ZM155.945,40.905C155.943,40.905 155.94,40.905 155.938,40.905C153.672,40.905 151.807,42.555 151.807,44.56L151.807,44.56C151.807,46.565 153.672,48.214 155.938,48.214C155.94,48.214 155.943,48.214 155.945,48.214C158.21,48.213 160.072,46.563 160.072,44.56C160.072,42.556 158.21,40.907 155.945,40.905ZM177.515,40.905C177.513,40.905 177.512,40.905 177.511,40.905C175.245,40.905 173.38,42.555 173.38,44.56L173.38,44.56C173.38,46.565 175.245,48.214 177.511,48.214C177.512,48.214 177.513,48.214 177.515,48.214C179.781,48.214 181.646,46.565 181.646,44.56C181.646,42.555 179.781,40.905 177.515,40.905ZM33.65,62.157C33.647,62.157 33.645,62.157 33.642,62.157C31.378,62.157 29.514,63.804 29.511,65.808C29.511,65.809 29.511,65.81 29.511,65.812C29.511,67.816 31.376,69.466 33.642,69.466C33.644,69.466 33.645,69.466 33.646,69.466C35.912,69.466 37.777,67.816 37.777,65.812C37.777,63.807 35.912,62.157 33.646,62.157L33.65,62.157ZM167.102,62.157C164.836,62.157 162.971,63.807 162.971,65.812L162.971,65.812C162.971,67.816 164.836,69.466 167.102,69.466C167.103,69.466 167.105,69.466 167.106,69.466C169.372,69.466 171.237,67.816 171.237,65.812C171.237,63.807 169.372,62.157 167.106,62.157L167.102,62.157Z" style="fill:#ff9000;fill-rule:nonzero;"/>
            </g>
        </g>
    </g>
</svg>
